src/images/icons/icon-bike.svg

<svg width="64" height="56" viewBox="0 0 64 56" fill="none" xmlns="http://www.w3.org/2000/svg">
<path fill-rule="evenodd" clip-rule="evenodd" d="M57.1734 31.4468C59.9275 33.0367 62.4467 36.0664 63.8291 41.5715C64.7173 45.1082 62.0313 48.5292 58.3724 48.5293H56.3091C55.4379 52.7839 51.6504 55.9953 47.1231 55.9953C42.5957 55.9953 38.808 52.7839 37.937 48.5293H18.5728C17.6929 53.1568 13.8956 56 9.36014 56C4.28576 56 0 51.9054 0 46.6628V42.9297C0 36.4873 4.70838 31.1194 10.8795 30.0564L14.347 18.6653H13.1244C12.089 18.6653 11.2495 17.8297 11.2495 16.7988V9.33284C11.2495 8.3021 12.0889 7.46637 13.1244 7.46637H16.8743C19.9758 7.46637 22.499 9.9783 22.499 13.0659V14.9324H28.1238C29.1592 14.9324 29.9987 15.768 29.9987 16.7988C29.9987 17.8296 29.1593 18.6653 28.1238 18.6653H24.3688C25.5484 20.2261 26.2488 22.1655 26.2488 24.2648V42.9295V42.9299V44.7963H35.0495C37.9409 41.3848 37.7752 36.2634 34.5479 33.0508C34.2085 32.713 33.9985 32.2463 33.9985 31.7307V27.9976C33.9985 25.419 35.7589 23.2432 38.1459 22.5953C37.8903 21.9561 37.7483 21.2602 37.7483 20.5315V5.59953C37.7483 2.51194 40.2715 0 43.3731 0H58.3723C61.4738 0 63.9971 2.51194 63.9971 5.59953V20.5315C63.9971 23.6191 61.4738 26.131 58.3723 26.131H58.0498C58.2579 26.7152 58.3723 27.3432 58.3723 27.9975C58.3723 29.298 57.9234 30.4954 57.1734 31.4468ZM16.8741 11.1991H14.9993H14.9991V14.932H18.749V13.0655C18.749 12.0364 17.908 11.1991 16.8741 11.1991ZM12.2348 51.5728C7.89638 53.67 3.74975 50.6418 3.74975 46.6627C3.74975 43.5753 6.27288 41.0634 9.37401 41.0632H9.37426H9.37451C12.476 41.0632 14.9993 43.5751 14.9993 46.6627C14.9993 48.8337 13.9141 50.7611 12.2348 51.5728ZM18.5605 44.7962H22.499V42.9299C22.499 37.7838 18.2935 33.5973 13.1244 33.5973C9.57751 33.5973 6.48476 35.5685 4.89263 38.4682C6.22463 37.7431 7.75163 37.3303 9.37376 37.3302H9.37414H9.37451C13.9019 37.3302 17.6895 40.5416 18.5605 44.7962ZM22.499 33.7958C20.489 31.7517 17.8125 30.3596 14.8229 29.9734L18.2163 18.8261C20.672 19.4267 22.499 21.6372 22.499 24.2646V33.7958ZM43.3729 3.73318C42.3392 3.73318 41.4981 4.57041 41.4981 5.59965V7.46612H60.2471V5.59965C60.2471 4.57054 59.4061 3.73318 58.3722 3.73318H43.3729ZM41.4982 11.1991H60.2472V20.5316C60.2472 21.5609 59.4061 22.3981 58.3723 22.3981H43.3731C42.3392 22.3981 41.4982 21.5608 41.4982 20.5316V11.1991ZM37.7483 27.9976V29.8641H39.6232H52.7476C53.7813 29.8641 54.6224 29.0269 54.6224 27.9976C54.6224 26.9685 53.7814 26.1312 52.7476 26.1312H39.6232C38.5894 26.1312 37.7483 26.9684 37.7483 27.9976ZM47.1228 52.2622C44.6786 52.2622 42.5946 50.6767 41.8206 48.5043H52.4251C51.6512 50.6767 49.5671 52.2622 47.1228 52.2622ZM39.5159 44.7962H58.3723C59.5933 44.7962 60.4869 43.6546 60.1912 42.477C58.6907 36.5018 55.6519 33.5972 50.9014 33.5972H39.6232H39.5157C41.2922 37.1071 41.2923 41.2863 39.5159 44.7962ZM9.37451 48.5288C10.41 48.5288 11.2494 47.6931 11.2494 46.6623C11.2494 45.6315 10.41 44.7958 9.37451 44.7958C8.33905 44.7958 7.49963 45.6315 7.49963 46.6623C7.49963 47.6931 8.33905 48.5288 9.37451 48.5288ZM47.1228 37.3302H50.8727C51.9082 37.3302 52.7476 38.166 52.7476 39.1967C52.7476 40.2274 51.9082 41.0632 50.8727 41.0632H47.1228C46.0874 41.0632 45.2479 40.2274 45.2479 39.1967C45.2479 38.166 46.0873 37.3302 47.1228 37.3302Z" fill="#5DC4B8"/>
</svg>

<svg width="64" height="56" fill="none" xmlns="http://www.w3.org/2000/svg"><path fill-rule="evenodd" clip-rule="evenodd" d="M57.173 31.447c2.755 1.59 5.274 4.62 6.656 10.125.888 3.536-1.798 6.957-5.457 6.957H56.31c-.871 4.255-4.659 7.466-9.186 7.466s-8.315-3.211-9.186-7.466H18.573C17.693 53.157 13.896 56 9.36 56 4.286 56 0 51.905 0 46.663V42.93c0-6.443 4.708-11.81 10.88-12.874l3.467-11.39h-1.223a1.87 1.87 0 01-1.875-1.867V9.333c0-1.03.84-1.867 1.875-1.867h3.75c3.102 0 5.625 2.512 5.625 5.6v1.866h5.625a1.87 1.87 0 011.875 1.867 1.87 1.87 0 01-1.875 1.866h-3.755a9.257 9.257 0 011.88 5.6V44.796h8.8c2.892-3.411 2.726-8.533-.501-11.745a1.857 1.857 0 01-.55-1.32v-3.733c0-2.579 1.76-4.755 4.148-5.403a5.545 5.545 0 01-.398-2.063V5.6c0-3.088 2.524-5.6 5.625-5.6h15c3.1 0 5.624 2.512 5.624 5.6v14.932c0 3.087-2.523 5.599-5.625 5.599h-.322a5.554 5.554 0 01-.876 5.316zM16.874 11.199H15v3.733h3.75v-1.867c0-1.029-.841-1.866-1.875-1.866zm-4.64 40.374c-4.338 2.097-8.484-.931-8.484-4.91 0-3.088 2.523-5.6 5.624-5.6 3.102 0 5.625 2.512 5.625 5.6 0 2.17-1.085 4.098-2.764 4.91zm6.327-6.777h3.938V42.93c0-5.146-4.205-9.333-9.375-9.333a9.388 9.388 0 00-8.231 4.871 9.347 9.347 0 014.48-1.138h.001c4.528 0 8.315 3.212 9.187 7.466zm3.938-11a13.12 13.12 0 00-7.676-3.823l3.393-11.147c2.456.6 4.283 2.811 4.283 5.439v9.53zM43.373 3.733A1.873 1.873 0 0041.498 5.6v1.866h18.75V5.6c0-1.03-.842-1.867-1.876-1.867h-15zM41.498 11.2h18.75v9.333c0 1.029-.842 1.866-1.876 1.866H43.373a1.873 1.873 0 01-1.875-1.866v-9.333zm-3.75 16.799v1.866h15a1.873 1.873 0 001.874-1.866c0-1.03-.84-1.867-1.874-1.867H39.623a1.873 1.873 0 00-1.875 1.867zm9.375 24.264c-2.444 0-4.528-1.585-5.302-3.758h10.604c-.774 2.173-2.858 3.758-5.302 3.758zm-7.607-7.466h18.856a1.868 1.868 0 001.82-2.319c-1.501-5.975-4.54-8.88-9.29-8.88H39.515a12.433 12.433 0 010 11.2zM9.375 48.53a1.87 1.87 0 001.874-1.867 1.87 1.87 0 00-1.874-1.866A1.87 1.87 0 007.5 46.662c0 1.031.84 1.867 1.875 1.867zM47.123 37.33h3.75a1.87 1.87 0 011.875 1.867 1.87 1.87 0 01-1.875 1.866h-3.75a1.87 1.87 0 01-1.875-1.866c0-1.031.84-1.867 1.875-1.867z" fill="#5DC4B8"/></svg>
